X: 19067
T: Iris
R: waltz
M: 3/4
K: Eminor
EF|:G3A FG|E2 EGBe|cBAG FG|AD deBA|BEED EF|
[1 G3ABd|d^c cAFA|B4 (3AGF:|2 G3 AB2|F3ED2|E6||
|:egBdAB|G2EFGB|AccAce|feBGFE|
[C3c3][Ge][Fd][Dc]|[B3B,3] [Gc][FB][EG]|FEAGFD|1 EFGABd:|2 E6||

